svg/map/bed_fill.svg

<?xml version="1.0" encoding="UTF-8"?>
<svg width="24px" height="24px" viewBox="0 0 24 24" version="1.1" xmlns="http://www.w3.org/2000/svg" xmlns:xlink="http://www.w3.org/1999/xlink">
    <title>bed_fill</title>
    <g id="Icon" stroke="none" stroke-width="1" fill="none" fill-rule="evenodd">
        <g id="Map" transform="translate(-432.000000, -144.000000)">
            <g id="bed_fill" transform="translate(432.000000, 144.000000)">
                <path d="M24,0 L24,24 L0,24 L0,0 L24,0 Z M12.5935,23.2578 L12.5819,23.2595 L12.5109,23.295 L12.4919,23.2987 L12.4767,23.295 L12.4057,23.2595 C12.3958,23.2564 12.387,23.259 12.3821,23.2649 L12.378,23.2758 L12.3609,23.7031 L12.3659,23.7235 L12.3769,23.7357 L12.4805,23.8097 L12.4953,23.8136 L12.5071,23.8097 L12.6107,23.7357 L12.6233,23.7197 L12.6267,23.7031 L12.6096,23.2758 C12.6076,23.2657 12.601,23.2593 12.5935,23.2578 Z M12.8584,23.1453 L12.8445,23.1473 L12.6598,23.2397 L12.6499,23.2499 L12.6472,23.2611 L12.6651,23.6906 L12.6699,23.7034 L12.6784,23.7105 L12.8793,23.8032 C12.8914,23.8069 12.9022,23.803 12.9078,23.7952 L12.9118,23.7812 L12.8777,23.1665 C12.8753,23.1546 12.8674,23.147 12.8584,23.1453 Z M12.143,23.1473 C12.1332,23.1424 12.1222,23.1453 12.1156,23.1526 L12.1099,23.1665 L12.0758,23.7812 C12.0751,23.7927 12.0828,23.8019 12.0926,23.8046 L12.1083,23.8032 L12.3092,23.7105 L12.3186,23.7024 L12.3225,23.6906 L12.3404,23.2611 L12.3372,23.2485 L12.3278,23.2397 L12.143,23.1473 Z" id="MingCute" fill-rule="nonzero"></path>
                <path d="M3,5 C3.51283143,5 3.93550653,5.38604429 3.9932722,5.88337975 L4,6 L4,13 L11,13 L11,8 C11,7.48716857 11.386027,7.06449347 11.8833761,7.0067278 L12,7 L19,7 C20.597725,7 21.903664,8.24892392 21.9949075,9.82372764 L22,10 L22,18 C22,18.5523 21.5523,19 21,19 C20.48715,19 20.0644908,18.613973 20.0067275,18.1166239 L20,18 L20,15 L4,15 L4,18 C4,18.5523 3.55228,19 3,19 C2.48716857,19 2.06449347,18.613973 2.0067278,18.1166239 L2,18 L2,6 C2,5.44772 2.44772,5 3,5 Z M7.5,7 C8.88071,7 10,8.11929 10,9.5 C10,10.8807 8.88071,12 7.5,12 C6.11929,12 5,10.8807 5,9.5 C5,8.11929 6.11929,7 7.5,7 Z" id="形状" fill="#09244B"></path>
            </g>
        </g>
    </g>
</svg>

<svg xmlns="http://www.w3.org/2000/svg" width="24" height="24"><g fill="none" fill-rule="evenodd"><path d="M24 0v24H0V0h24ZM12.594 23.258l-.012.002-.071.035-.02.004-.014-.004-.071-.036c-.01-.003-.019 0-.024.006l-.004.01-.017.428.005.02.01.013.104.074.015.004.012-.004.104-.074.012-.016.004-.017-.017-.427c-.002-.01-.009-.017-.016-.018Zm.264-.113-.014.002-.184.093-.01.01-.003.011.018.43.005.012.008.008.201.092c.012.004.023 0 .029-.008l.004-.014-.034-.614c-.003-.012-.01-.02-.02-.022Zm-.715.002a.023.023 0 0 0-.027.006l-.006.014-.034.614c0 .012.007.02.017.024l.015-.002.201-.093.01-.008.003-.011.018-.43-.003-.012-.01-.01-.184-.092Z"/><path fill="#09244B" d="M3 5a1 1 0 0 1 .993.883L4 6v7h7V8a1 1 0 0 1 .883-.993L12 7h7a3 3 0 0 1 2.995 2.824L22 10v8a1 1 0 0 1-1.993.117L20 18v-3H4v3a1 1 0 0 1-1.993.117L2 18V6a1 1 0 0 1 1-1Zm4.5 2a2.5 2.5 0 1 1 0 5 2.5 2.5 0 0 1 0-5Z"/></g></svg>
